!!!!SEGMENT: pl-kk--kk-i-3--058_anonim--prosa-pro-feria-tertia-mittitur-archangelus.krn
!!!cenid: 15xx:717
!!!COM: Anonim
!!!COM-rismid: pe30004985
!!!CDT:
!!!CNT:
!!!OTL: Prosa pro Feria Tertia/Mittitur archangelus
!!!PDT:
!!!AGN:
!!!SMS-siglum: PL-Kk
!!!SMS-shelfmark: Kk.I.3
!!!SMS-shelfwork: 058 W
!!!SMS-variant:
!!!SMS-altvar:
!!!NIFC-rismid: 1001145493
!!!URL-scan: http://repozytorium.nifc.pl/skany/pl-kk-nut--i-3
!!!ONB-nifc: UWAGA: Discantus (s. 155v-157v, skan 0158-0160), Tenor (s. 116r-119v, skan 0288-0292), Bassus (s. 149v-151r, skan 0453-0454)
!!!key:
**kern	**text	**kern	**text	**kern	**text	**text
*part3	*part3	*part2	*part2	*part1	*part1	*part1
*staff3	*staff3	*staff2	*staff2	*staff1	*staff1	*staff1
*I"[Bassus]	*	*I"[Tenor]	*	*I"[Discantus]	*	*
*I'B	*	*I'T	*	*I'S	*	*
*ICvox	*	*ICvox	*	*ICvox	*	*
*Ibass	*	*Itenor	*	*Isoprn	*	*
*clefF4	*	*clefC4	*	*clefC3	*	*
*k[]	*	*k[]	*	*k[]	*	*
*d:	*	*d:	*	*d:	*	*
*M2/1	*	*M2/1	*	*M2/1	*	*
*met(c|)	*	*met(c|)	*	*met(c|)	*	*
=1	=1	=1	=1	=1	=1	=1
!	!	!	!	!LO:TX:t=P:problem:Discantus i Bassus ma zapisany tekst w dwuwierszu, tenor pojedynczo	!	!
1r	.	1C	Mit-	1.G	Mit-	.
1GG	Mit-	1D	-ti-	.	.	.
.	.	.	.	2D/	-ti-	.
=2	=2	=2	=2	=2	=2	=2
!	!	!LO:SIC:v:t=custos G	!	!	!	!
1AA	-ti-	1F	-tur	1A	-tur	.
!	!	!LO:LB:g=original	!	!	!	!
2C/	-tur	1G	Ar-	2G/	Ar-	.
2C/	Ar-	.	.	2c\	-chan-	.
=3	=3	=3	=3	=3	=3	=3
1D	-chan-	1F	-chan-	2.A/	-ge-	.
.	.	.	.	4G/	-lus	.
1AA	-ge-	1E	-ge-	4A/	.	.
.	.	.	.	4B/	.	.
.	.	.	.	2c\	fi-	.
=4	=4	=4	=4	=4	=4	=4
!	!	!	!	!LO:SIC:v:t=custos A	!	!
2BB-X/	-lus	1D,	-lus	1B-X	-de-	.
2GG/	fi-	.	.	.	.	.
!	!	!	!	!LO:LB:g=original	!	!
1AA	-de-	1C	fi-	1A	-lis	.
=5	=5	=5	=5	=5	=5	=5
!LO:SIC:v:t=custos D	!	!	!	!	!	!
1DD	-lis	1D	-de-	2r	.	.
.	.	.	.	2.f\	ad	.
!LO:LB:g=original	!	!	!	!	!	!
1.D	ad	1D,	-lis	.	.	.
.	.	.	.	4e\	Ma-	.
.	.	.	.	2d\	-ri-	.
=6	=6	=6	=6	=6	=6	=6
.	.	1F,	ad	2A/	-am	.
2D\	Ma-	.	.	1d	.	.
1E	-ri-	1G	Ma-	.	.	.
.	.	.	.	2c/	.	.
=7	=7	=7	=7	=7	=7	=7
2D\	-am	1A	-ri-	2d\	.	.
1F	Vir-	.	.	1c	.	.
!	!	!LO:SIC:v:t=custos d	!	!	!	!
.	.	1c,	-am	.	.	.
2F\	-gi-	.	.	2A/	.	.
!	!	!LO:LB:g=original	!	!	!	!
=8	=8	=8	=8	=8	=8	=8
*	*	*lig	*	*	*	*
2D\	-nem	1d	vir-	1.F	.	.
2BB/	.	.	.	.	.	.
*	*ij	*	*	*	*	*
2F\	Mit-	1c	.	.	.	.
2.FF/	-ti-	.	.	4F/	Vir-	.
.	.	.	.	4G/	.	.
*	*	*Xlig	*	*	*	*
=9	=9	=9	=9	=9	=9	=9
*	*	*lig	*	*	*	*
.	.	1A	-gi-	4A/	.	.
!	!	!	!	!LO:SIC:v:t=custos c	!	!
4GG/	-tur	.	.	4B/	.	.
!	!	!	!	!LO:LB:g=original	!	!
4AA/	Ar-	.	.	2c\	.	.
4BB/	-chan-	.	.	.	.	.
2.C/	-ge-	1G	.	2c\	-gi-	.
.	.	.	.	2G/	-nem	.
4C/	-lus	.	.	.	.	.
*	*	*Xlig	*	*	*	*
=10	=10	=10	=10	=10	=10	=10
2FF/	fi-	1F	.	2A/	.	.
!LO:SIC:v:t=custos D	!	!	!	!	!	!
2F\	-de-	.	.	2c\	.	.
!LO:LB:g=original	!	!	!	!	!	!
2D/	-lis	1F,	-nem	1d	.	.
2BB/	ad	.	.	.	.	.
=11	=11	=11	=11	=11	=11	=11
1F	.	1F	de	2c\	.	.
.	.	.	.	2d\	.	.
2.E\	Ma-	1G	cae-	2d\	de	.
.	.	.	.	2c\	cae-	.
4E\	-ri-	.	.	.	.	.
=12	=12	=12	=12	=12	=12	=12
*	*	*lig	*	*	*	*
2D/	-am	1A	.	2d\	-lis.	.
2AA/	Vir-	.	.	2f\	.	.
2C/	-gi-	1G	.	2e\	.	.
4GG/	-nem	.	.	1d	.	.
*	*Xij	*	*	*	*	*
4AA/	de	.	.	.	.	.
*	*	*Xlig	*	*	*	*
=13	=13	=13	=13	=13	=13	=13
*	*	*lig	*	*	*	*
4BB/	.	1F	.	.	.	.
4C/	.	.	.	.	.	.
2D/	.	.	.	4A/	.	.
.	.	.	.	4B/	.	.
1AA	cae-	1E	.	4c\	.	.
.	.	.	.	4d\	.	.
.	.	.	.	4e\	.	.
!	!	!	!	!LO:SIC:v:t=custos f	!	!
.	.	.	.	4c\	.	.
!	!	!	!	!LO:LB:g=original	!	!
*	*	*Xlig	*	*	*	*
=14	=14	=14	=14	=14	=14	=14
2BB-X/	-lis.	1D	.	2f\	.	.
2GG/	.	.	.	2g\	.	.
1AA	.	1C	-lis.	1e	.	.
=15	=15	=15	=15	=15	=15	=15
!LO:SIC:v:t=custos GG	!	!LO:SIC:v:t=custos C	!	!	!	!
0D	.	0D	.	0d	.	.
!LO:LB:g=original	!	!	!	!	!	!
!	!	!LO:LB:g=original	!	!	!	!
=16	=16	=16	=16	=16	=16	=16
*met(c|)	*	*	*	*met(c|)	*	*
1r	.	1C	-An-	1.G	An-	.
1GG	An-	1D	-ti-	.	.	.
.	.	.	.	2D/	-ti-	.
=17	=17	=17	=17	=17	=17	=17
1AA	-ti-	1F	-quiſ-	1A	-qui-	.
2C/	-qui-	1G,	-que	2G/	-ſq(ue)	.
2C/	-ſque	.	.	2c\	la-	.
=18	=18	=18	=18	=18	=18	=18
1D	la-	1F	la-	2.A/	-tu-	.
.	.	.	.	4G/	-e-	.
1AA	-tu-	1E	-tu-	4A/	.	.
.	.	.	.	4B/	.	.
.	.	.	.	2c\	-re	.
=19	=19	=19	=19	=19	=19	=19
!	!	!	!	!LO:SIC:v:t=custos A	!	!
2BB-X/	-e-	1D	-e-	1B-X	ve-	.
2GG/	-re	.	.	.	.	.
!	!	!	!	!LO:LB:g=original	!	!
1AA	vel-	1C,	-re	1A	-lis	.
=20	=20	=20	=20	=20	=20	=20
!LO:SIC:v:t=custos D	!	!	!	!	!	!
1DD	-lis	1D	ve-	2r	.	.
.	.	.	.	2.f\	vox	.
!LO:LB:g=original	!	!	!	!	!	!
1.D	vox	1D,	-lis	.	.	.
.	.	.	.	4e\	haec	.
.	.	.	.	2d\	pa-	.
=21	=21	=21	=21	=21	=21	=21
.	.	1F,	vox	2A/	-te	.
2D\	haec	.	.	1d	fe-	.
!	!	!LO:SIC:v:t=custos A	!	!	!	!
1E	pa-	1G,	haec	.	.	.
.	.	.	.	2c/	-cit	.
!	!	!LO:LB:g=original	!	!	!	!
=22	=22	=22	=22	=22	=22	=22
2D\	-te	1A	pa-	2d\	.	.
1F	fe-	.	.	1c	.	.
.	.	1c	-te	.	.	.
2F\	-cit	.	.	2A/	.	.
=23	=23	=23	=23	=23	=23	=23
2D\	.	1d	fe-	1.F	.	.
2BB/	.	.	.	.	.	.
*	*ij	*lig	*	*	*	*
2F\	An-	1c	-cit	.	.	.
2.FF/	-ti-	.	.	4F/	Ga-	.
.	.	.	.	4G/	.	.
=24	=24	=24	=24	=24	=24	=24
.	.	1A	.	4A/	.	.
4GG/	-qui-	.	.	4B/	.	.
!	!	!	!	!LO:SIC:v:t=custos c	!	!
4AA/	-fue	.	.	2c\	.	.
4BB/	la-	.	.	.	.	.
*	*	*Xlig	*	*	*	*
*	*	*lig	*	*	*	*
!	!	!	!	!LO:LB:g=original	!	!
2.C/	-tu-	1G	.	2c\	.	.
.	.	.	.	2G/	-bri-	.
4C/	-e-	.	.	.	.	.
=25	=25	=25	=25	=25	=25	=25
2FF/	-re	1F,	.	2A/	.	.
!LO:SIC:v:t=custos D	!	!	!	!	!	!
2F\	vel-	.	.	2c\	.	.
*	*	*Xlig	*	*	*	*
!LO:LB:g=original	!	!	!	!	!	!
2D/	-lis	1F	Ga-	1d	.	.
2BB/	vox	.	.	.	.	.
=26	=26	=26	=26	=26	=26	=26
*	*	*lig	*	*	*	*
1F	.	1G	-bri-	2c\	.	.
.	.	.	.	2d\	.	.
2.E\	haec	1A	.	2d\	.	-e-
.	.	.	.	2c\	.	-lis.
4E\	pa-	.	.	.	.	.
*	*	*Xlig	*	*	*	*
=27	=27	=27	=27	=27	=27	=27
*	*	*lig	*	*	*	*
2D/	-te	1G	.	2d\	.	.
2AA/	fe-	.	.	2f\	.	.
2C/	-cit	1F	.	2e\	.	.
4GG/	.	.	.	1d	.	.
*	*Xij	*	*	*	*	*
4AA/	Ga-	.	.	.	.	.
*	*	*Xlig	*	*	*	*
=28	=28	=28	=28	=28	=28	=28
4BB/	.	1E	.	.	.	.
4C/	.	.	.	.	.	.
2D/	.	.	.	4A/	.	.
.	.	.	.	4B/	.	.
!	!	!LO:SIC:v:t=custos C	!	!	!	!
1AA	-bri-	1D	.	4c\	.	.
.	.	.	.	4d\	.	.
.	.	.	.	4e\	.	.
!	!	!	!	!LO:SIC:v:t=custos f	!	!
.	.	.	.	4c\	.	.
!	!	!LO:LB:g=original	!	!	!	!
!	!	!	!	!LO:LB:g=original	!	!
=29	=29	=29	=29	=29	=29	=29
*	*	*lig	*	*	*	*
2BB-X/	-e-	1C	-e-	2f\	.	.
2GG/	-lis.	.	.	2g\	.	.
1AA	.	1D	.	1e	.	.
*	*	*Xlig	*	*	*	*
=30	=30	=30	=30	=30	=30	=30
!LO:SIC:v:t=custos AA	!	!	!	!	!	!
0D	.	0D	-lis.	0d	.	.
!LO:LB:g=original	!	!	!	!	!	!
=31||	=31||	=31||	=31||	=31||	=31||	=31||
0r	.	1D	In-	2A/	In-	.
.	.	.	.	1A	-greſ-	.
.	.	1D	-greſ-	.	.	.
.	.	.	.	1d	-sus	.
=32	=32	=32	=32	=32	=32	=32
1r	.	1A,	-sus	.	.	.
.	.	.	.	4c\	.	.
.	.	.	.	4B/	haec	.
1AA	In-	1A,	haec	2.c\	nun-	.
.	.	.	.	4d\	.	.
=33	=33	=33	=33	=33	=33	=33
1AA	-greſ-	1A	nun-	1e	-ci-	.
2E\	-sus	1G	-ci-	1e	-at	.
2C/	.	.	.	.	.	.
=34	=34	=34	=34	=34	=34	=34
!	!	!LO:SIC:v:t=custos G	!	!	!	!
2D\	haec	1F,	-at	2d\	a-	.
!	!	!	!	!LO:SIC:v:t=custos e	!	!
2F\	nun-	.	.	2c/	.	.
!	!	!LO:LB:g=original	!	!	!	!
!	!	!	!	!LO:LB:g=original	!	!
1E	-ci-	1G	a-	2e\	-me-	.
.	.	.	.	2B/	-na	.
=35	=35	=35	=35	=35	=35	=35
*	*	*lig	*	*	*	*
2.D/	-at	1F	-me-	2d\	.	.
.	.	.	.	2A/	.	.
4C/	a-	.	.	.	.	.
1BB	-me-	1G	.	1B	.	.
*	*	*Xlig	*	*	*	*
=36	=36	=36	=36	=36	=36	=36
0AA	-na	1A	.	2c\	.	.
.	.	.	.	1d	a-	.
.	.	1A,	-na	.	.	.
.	.	.	.	2c\	-ve	.
=37	=37	=37	=37	=37	=37	=37
2r	.	1A	a-	2d\	in-	.
2D\	a-	.	.	2A/	-quit	.
2C/	-ve	1A,	-ve	2c\	.	.
!LO:SIC:v:t=custos GG	!	!	!	!	!	!
2D\	di-	.	.	2A/	gra-	.
!LO:LB:g=original	!	!	!	!	!	!
=38	=38	=38	=38	=38	=38	=38
2GG/	-xit	1G	in-	2B/	.	.
2G\	gra-	.	.	2G/	-ti-	.
2D\	-ti-	1F,	-quit	2d\	-a	.
2F\	-a	.	.	1c	tu	.
=39	=39	=39	=39	=39	=39	=39
1C	tu	1E	gra-	.	.	.
.	.	.	.	1B	.	.
1D	.	1D	-ti-	.	.	.
.	.	.	.	2A/	ple-	.
=40	=40	=40	=40	=40	=40	=40
!	!	!	!	!LO:SIC:v:t=custos c	!	!
1C	ple-	1E,	-a	1c	.	.
2AA/	-na	1C,	tu	1c	-na.	.
2AA/	gra-	.	.	.	.	.
=41	=41	=41	=41	=41	=41	=41
*	*	*lig	*	*	*	*
1AA	-ti-	1E	ple-	0c	.	.
1FF	-a	1F	.	.	.	.
*	*	*Xlig	*	*	*	*
=42	=42	=42	=42	=42	=42	=42
0GG	ple-	00D	-na.	1B-X	.	.
.	.	.	.	1B-	.	.
=43	=43	=43	=43	=43	=43	=43
0D	-na.	.	.	0A	.	.
=44	=44	=44	=44	=44	=44	=44
0r	.	1D	He-	2A/	He-	.
.	.	.	.	1A	-rus	.
.	.	1D	-rus	.	.	.
.	.	.	.	1d	ma-	.
=45	=45	=45	=45	=45	=45	=45
1r	.	1A	ma-	.	.	.
.	.	.	.	4c\	-net	.
.	.	.	.	4B/	.	.
1AA	He-	1A,	-net	2.c\	in	.
.	.	.	.	4d\	te	.
=46	=46	=46	=46	=46	=46	=46
1AA	-rus	1A,	in	1e	vi-	.
2E\	ma-	1G,	te	1e	-tae	.
2C/	-net	.	.	.	.	.
=47	=47	=47	=47	=47	=47	=47
!	!	!LO:SIC:v:t=custos G	!	!	!	!
2D\	ni	1F	vi-	2d\	.	.
!	!	!	!	!LO:SIC:v:t=custos e	!	!
2F\	te	.	.	2c/	.	.
!	!	!LO:LB:g=original	!	!LO:LB:g=original	!	!
1E	vi-	1G,	-tae	2e\	ve-	.
.	.	.	.	2B/	-na	.
=48	=48	=48	=48	=48	=48	=48
*	*	*lig	*	*	*	*
2.D/	-tae	1F	ve-	2d\	.	.
.	.	.	.	2A/	.	.
4C/	.	.	.	.	.	.
1BB	ve-	1G	.	1B	.	.
*	*	*Xlig	*	*	*	*
=49	=49	=49	=49	=49	=49	=49
0AA	-na	1A	.	2c\	.	.
.	.	.	.	1d	in-	.
.	.	1A,	-na	.	.	.
.	.	.	.	2c\	-ter	.
=50	=50	=50	=50	=50	=50	=50
2r	.	1A	in-	2d\	om-	.
2D\	in-	.	.	2A/	-nes	.
2C/	-ter	1A,	-ter	2c\	.	.
!LO:SIC:v:t=custos GG	!	!	!	!	!	!
2D\	om-	.	.	2A/	fae-	.
!LO:LB:g=original	!	!	!	!	!	!
=51	=51	=51	=51	=51	=51	=51
2GG/	-nes	1G	om-	2B/	-mi-	.
2G\	fae-	.	.	2G/	-nas	.
2D\	-mi-	1F,	-nes	2d\	.	.
2F\	-nas	.	.	1c	.	.
=52	=52	=52	=52	=52	=52	=52
1C	.	1E	fae-	.	.	.
.	.	.	.	1B	.	.
1D	.	1D	-mi-	.	.	.
.	.	.	.	2A/	ſe-	.
=53	=53	=53	=53	=53	=53	=53
!	!	!	!	!LO:SIC:v:t=custos c	!	!
1C	ſe-	1E,	-nas	1c	.	.
!	!	!	!	!LO:LB:g=original	!	!
2AA/	-re-	1C	ſe-	1c	-re-	.
2AA/	-na	.	.	.	.	.
=54	=54	=54	=54	=54	=54	=54
*	*ij	*lig	*	*	*	*
1AA	ſe-	1E	re-	0c	-na.	.
1FF	-re-	1F	.	.	.	.
*	*	*Xlig	*	*	*	*
=55	=55	=55	=55	=55	=55	=55
!	!	!LO:SIC:v:t=custos D	!	!	!	!
0GG	-na	00D	-na.	1B-X	.	.
.	.	.	.	1B-	.	.
*	*Xij	*	*	*	*	*
!	!	!LO:LB:g=original	!	!	!	!
=56	=56	=56	=56	=56	=56	=56
0D	.	.	.	0A	.	.
=57||	=57||	=57||	=57||	=57||	=57||	=57||
2D\	Cu-	1D	Cu-	1A	Cu-	.
!LO:SIC:v:t=custos F	!	!	!	!	!	!
2D\	-ius	.	.	.	.	.
!LO:LB:g=original	!	!	!	!	!	!
2F\	ex	1D,	-ius	1A	-ius	.
2.D\	ſer-	.	.	.	.	.
=58	=58	=58	=58	=58	=58	=58
.	.	1F,	ex	2d\	ex	.
4E\	.	.	.	.	.	.
4F\	.	.	.	2c\	ſer-	.
4G\	.	.	.	.	.	.
4A\	.	1D	ſer-	1d	-mo-	.
4B\	.	.	.	.	.	.
1A	.	.	.	.	.	.
=59	=59	=59	=59	=59	=59	=59
.	.	1D	-mo-	1A	-ne	.
4G\	.	.	.	.	.	.
4F\	.	.	.	.	.	.
1G	-mo-	1C,	-ne	2r	.	.
.	.	.	.	2G/	fit	.
=60	=60	=60	=60	=60	=60	=60
!	!	!	!	!LO:SIC:v:t=custos c	!	!
2D\	-ne	1F,	fit	2d\	tur-	.
!	!	!	!	!LO:LB:g=original	!	!
1F	fit	.	.	2.c\	-ba-	.
.	.	1G	tur-	.	.	.
.	.	.	.	4d\	-ta	.
2E\	tur-	.	.	2e\	.	.
=61	=61	=61	=61	=61	=61	=61
*	*	*lig	*	*	*	*
2F\	-ba-	1A	-ba-	2c\	.	.
2D\	-ta	.	.	2d\	co-	.
2G\	.	1B	.	2B/	-gi-	.
2E\	co-	.	.	2.B/	-ta-	.
*	*	*Xlig	*	*	*	*
=62	=62	=62	=62	=62	=62	=62
1A	-gi-	1c	.	.	.	.
.	.	.	.	4A/	-bat	.
.	.	.	.	1A	.	.
!LO:SIC:v:t=custos AA	!	!	!	!	!	!
*	*	*lig	*	*	*	*
1E	-ta-	1Bn	-ta	.	.	.
.	.	.	.	2G/	.	.
!LO:LB:g=original	!	!	!	!	!	!
=63	=63	=63	=63	=63	=63	=63
!	!	!LO:SIC:v:t=custos A	!	!	!	!
0AA	-bat	1A,	.	2A/	.	.
.	.	.	.	1e	cur	.
!	!	!LO:LB:g=original	!	!	!	!
*	*	*Xlig	*	*	*	*
.	.	1A	co-	.	.	.
.	.	.	.	2f\	ſit	.
=64	=64	=64	=64	=64	=64	=64
0r	.	1B-X	-gi-	1d	ſit	.
*	*	*lig	*	*	*	*
.	.	1A	-ta-	2e\	.	.
.	.	.	.	1f	.	.
=65	=65	=65	=65	=65	=65	=65
1r	.	1G	.	.	.	.
.	.	.	.	2e\	.	.
*	*	*Xlig	*	*	*	*
1D	co-	1F,	-bat	1.f	af-	.
=66	=66	=66	=66	=66	=66	=66
1F	-gi-	1A,	cur	.	.	.
!	!	!	!	!LO:SIC:v:t=custos d	!	!
.	.	.	.	2c/	-fa-	.
!	!	!	!	!LO:LB:g=original	!	!
1D	-ta-	1F,	ſit	1d	.	.
=67	=67	=67	=67	=67	=67	=67
1C	-bat	1G,	ſit	2G/	-ta.	.
.	.	.	.	2c\	.	.
*	*	*lig	*	*	*	*
1D	cur	1F	af-	4F/	.	.
.	.	.	.	4G/	.	.
.	.	.	.	4A/	.	.
.	.	.	.	4B/	.	.
=68	=68	=68	=68	=68	=68	=68
1AA	ſit	1E	.	1c	.	.
*	*	*Xlig	*	*	*	*
1BB-X	ſit	1D	.	1d	.	.
=69	=69	=69	=69	=69	=69	=69
*	*	*lig	*	*	*	*
1AA	af-	1C	-fa-	2e\	.	.
.	.	.	.	2c\	.	.
1GG	-fa-	1D	.	2g\	.	.
.	.	.	.	2d\	.	.
*	*	*Xlig	*	*	*	*
=70	=70	=70	=70	=70	=70	=70
!LO:SIC:v:t=custos D	!	!LO:SIC:v:t=custos D	!	!	!	!
0D	-ta.	0D	-ta.	0d	.	.
!LO:LB:g=original	!	!	!	!	!	!
!	!	!LO:LB:g=original	!	!	!	!
=71	=71	=71	=71	=71	=71	=71
2D\	Stu-	1D	Stu-	1A	Stu-	.
!LO:SIC:v:t=custos F	!	!	!	!	!	!
2D\	-pet	.	.	.	.	.
!LO:LB:g=original	!	!	!	!	!	!
2F\	vir-	1D,	-pet	1A	-pet	.
2.D\	-go	.	.	.	.	.
=72	=72	=72	=72	=72	=72	=72
.	.	1F	Vir-	2d\	vir-	.
4E\	.	.	.	.	.	.
4F\	.	.	.	2c\	-go	.
4G\	.	.	.	.	.	.
4A\	.	1D	-go	1d	quod	.
4B\	.	.	.	.	.	.
1A	.	.	.	.	.	.
=73	=73	=73	=73	=73	=73	=73
.	.	1D,	quod	1A	ſit	.
4G\	.	.	.	.	.	.
4F\	.	.	.	.	.	.
1G	quod	1C,	ſit	2r	.	.
.	.	.	.	2G/	ſa-	.
=74	=74	=74	=74	=74	=74	=74
!	!	!	!	!LO:SIC:v:t=custos c	!	!
2D\	ſit	1F	ſa-	2d\	-lu-	.
!	!	!	!	!LO:LB:g=original	!	!
1F	ſa-	.	.	2.c\	-ta-	.
.	.	1G	-lu-	.	.	.
.	.	.	.	4d\	-ta	.
2E\	-lu-	.	.	2e\	.	.
=75	=75	=75	=75	=75	=75	=75
*	*	*lig	*	*	*	*
2F\	-ta	1A	-ta-	2c\	.	.
2D\	.	.	.	2d\	vo-	.
2G\	.	1Bn	.	2B/	-ce	.
2E\	.	.	.	2.B/	nu(n)-	.
*	*	*Xlig	*	*	*	*
=76	=76	=76	=76	=76	=76	=76
1A	.	1c	.	.	.	.
.	.	.	.	4A/	.	.
.	.	.	.	1A	-qua(m)	.
!LO:SIC:v:t=custos AA	!	!	!	!	!	!
*	*	*lig	*	*	*	*
1E	.	1Bn	-ta	.	.	.
.	.	.	.	2G/	.	.
!LO:LB:g=original	!	!	!	!	!	!
=77	=77	=77	=77	=77	=77	=77
!	!	!LO:SIC:v:t=custos A	!	!	!	!
0AA	.	1A,	.	2A/	.	.
.	.	.	.	1e	pri-	.
!	!	!LO:LB:g=original	!	!	!	!
*	*	*Xlig	*	*	*	*
.	.	1A	Vo-	.	.	.
.	.	.	.	2f\	-us	.
=78	=78	=78	=78	=78	=78	=78
0r	.	1B-X	-ce	1d	.	.
*	*	*lig	*	*	*	*
.	.	1A	nun-	2e\	.	.
.	.	.	.	1f	.	.
=79	=79	=79	=79	=79	=79	=79
1r	.	1G	.	.	.	.
.	.	.	.	2e\	V-	.
*	*	*Xlig	*	*	*	*
1D	Vo-	1F,	-qua(m)	1.f	-fi-	.
=80	=80	=80	=80	=80	=80	=80
1F	-ce	1A	pri-	.	.	.
!	!	!	!	!LO:SIC:v:t=custos d	!	!
.	.	.	.	2c/	-ta-	.
!	!	!	!	!LO:LB:g=original	!	!
1D	nun-	1F,	-us	1d	.	.
=81	=81	=81	=81	=81	=81	=81
1C	-q(uam)	1G	V-	2G/	-ta.	.
.	.	.	.	2c\	.	.
*	*	*lig	*	*	*	*
1D	pri-	1F	-fi-	4F/	.	.
.	.	.	.	4G/	.	.
.	.	.	.	4A/	.	.
.	.	.	.	4B/	.	.
=82	=82	=82	=82	=82	=82	=82
1AA	-us	1E	.	1c	.	.
*	*	*Xlig	*	*	*	*
1BB-X	V-	1D	-ta-	1d	.	.
=83	=83	=83	=83	=83	=83	=83
*	*	*lig	*	*	*	*
1AA	-fi-	1C	.	2e\	.	.
.	.	.	.	2c\	.	.
1GG	-ta-	1D	.	2g\	.	.
.	.	.	.	2d\	.	.
*	*	*Xlig	*	*	*	*
=84	=84	=84	=84	=84	=84	=84
!LO:SIC:v:t=custos D	!	!LO:SIC:v:t=custos d	!	!	!	!
0D	-ta.	0D	-ta.	0d	.	.
!LO:LB:g=original	!	!	!	!	!	!
!	!	!LO:LB:g=original	!	!	!	!
=85||	=85||	=85||	=85||	=85||	=85||	=85||
1D	Ne	1d	Ne	1a	Ne	.
*	*	*lig	*	*	*	*
1F	ti-	1c	ti-	1f	ti-	.
=86	=86	=86	=86	=86	=86	=86
!	!	!	!	!LO:SIC:v:t=custos d	!	!
1G	-me-	1B	.	1d	-me-	.
*	*	*Xlig	*	*	*	*
!	!	!	!	!LO:LB:g=original	!	!
1D	-as	1A	.	2d\	-as	.
.	.	.	.	2A/	.	.
=87	=87	=87	=87	=87	=87	=87
*	*	*lig	*	*	*	*
2E\	.	1G	-me-	2e\	.	.
2G\	.	.	.	2d\	.	.
2F\	.	1A	.	2A/	.	.
2D\	in-	.	.	2A/	.	.
*	*	*Xlig	*	*	*	*
=88	=88	=88	=88	=88	=88	=88
2.A\	-quit	1A,	-as	1F	.	.
4G\	.	.	.	.	.	.
4F\	.	1A	in-	1r	.	.
4E\	.	.	.	.	.	.
2.F\	.	.	.	.	.	.
=89	=89	=89	=89	=89	=89	=89
.	.	1A,	-quit	1.A	in-	.
4E\	.	.	.	.	.	.
4D\	.	.	.	.	.	.
4C/	.	.	.	.	.	.
*	*	*lig	*	*	*	*
2D/	o	1F	o	.	.	.
2C/	.	.	.	2A/	-quit	.
=90	=90	=90	=90	=90	=90	=90
!LO:SIC:v:t=custos AA	!	!	!	!	!	!
1BB	.	1G	.	1d	o	.
*	*	*Xlig	*	*	*	*
*	*	*lig	*	*	*	*
!LO:LB:g=original	!	!	!	!	!	!
2AA/	.	1A	.	2c/	.	.
2AA/	.	.	.	2.A/	.	.
=91	=91	=91	=91	=91	=91	=91
2D\	.	1F	.	.	.	.
.	.	.	.	4G/	.	.
2D\	.	.	.	4A/	.	.
.	.	.	.	4B/	.	.
*	*	*Xlig	*	*	*	*
*	*	*lig	*	*	*	*
1C	.	1G	.	1c	.	.
=92	=92	=92	=92	=92	=92	=92
!	!	!LO:SIC:v:t=custos E	!	!	!	!
1D	.	1F	.	1A	.	.
!	!	!LO:LB:g=original	!	!	!	!
*	*	*Xlig	*	*	*	*
*	*	*lig	*	*	*	*
!	!	!	!	!LO:SIC:v:t=custos B	!	!
1AA	.	1E	Ma-	1A	.	.
!	!	!	!	!LO:LB:g=original	!	!
=93	=93	=93	=93	=93	=93	=93
2BB-X/	.	1D	.	2B-X/	.	.
2GG/	Ma-	.	.	2B-/	Ma-	.
*	*	*Xlig	*	*	*	*
*	*	*lig	*	*	*	*
1AA	-ri-	1C	-ri-	1A	-ri-	.
=94	=94	=94	=94	=94	=94	=94
0D	-a	1D	.	1A	-a	.
*	*	*Xlig	*	*	*	*
.	.	1D,	-a	2r	.	.
.	.	.	.	2d\	o	.
=95	=95	=95	=95	=95	=95	=95
0r	.	1D	Do-	1f	Ma-	.
.	.	1F	-mi-	2f\	-ri-	.
.	.	.	.	2c\	-a	.
=96	=96	=96	=96	=96	=96	=96
0r	.	1D,	-nus	2.d\	Do-	.
.	.	.	.	4c\	.	.
.	.	1D,	nam	4d\	.	.
.	.	.	.	4e\	.	.
.	.	.	.	1f	.	.
=97	=97	=97	=97	=97	=97	=97
0r	.	1C	te-	.	.	.
.	.	.	.	2e\	-mi-	.
.	.	1F,	-cum	2f\	-nus	.
.	.	.	.	2a\	nam	.
=98	=98	=98	=98	=98	=98	=98
0r	.	1G	ex-	1g	te-	.
!	!	!LO:SIC:v:t=custos d	!	!LO:SIC:v:t=custos f	!	!
.	.	1A,	-tat	1e	-cum	.
!	!	!LO:LB:g=original	!	!	!	!
!	!	!	!	!LO:LB:g=original	!	!
=99	=99	=99	=99	=99	=99	=99
1D	Do-	1d	dÿ-	1f	ex-	.
1F	-mi-	1c	.	1c	-tat	.
=100	=100	=100	=100	=100	=100	=100
1F	-nus	1A	.	1d	.	.
1D	nam	1F	.	2G/	Dÿ-	.
.	.	.	.	2c\	-a	.
=101	=101	=101	=101	=101	=101	=101
*	*	*	*	*	*ij	*
1C	te-	1G	.	2F/	ex-	.
.	.	.	.	1A	-tat	.
!LO:SIC:v:t=custos AA	!	!	!	!	!	!
1D	-cum	1F	.	.	.	.
.	.	.	.	2B/	Dÿ-	.
!LO:LB:g=original	!	!	!	!	!	!
=102	=102	=102	=102	=102	=102	=102
2AA/	ex-	1E	-a.	1c#X	.	.
2FF/	-tat	.	.	.	.	.
1AA	sÿ-	0.D	.	0.d	-a	.
*	*	*	*	*	*Xij	*
=103	=103	=103	=103	=103	=103	=103
0D;	-a.	.	.	.	.	.
=104	=104	=104	=104	=104	=104	=104
1D	Al-	1d	Al-	1a	Al-	.
*	*	*lig	*	*	*	*
1F	-tiſ-	1c	-tiſ-	1f	-tiſ-	.
=105	=105	=105	=105	=105	=105	=105
!	!	!	!	!LO:SIC:v:t=custos d	!	!
1G	-ſi-	1B	.	1d	-si-	.
!	!	!	!	!LO:LB:g=original	!	!
*	*	*Xlig	*	*	*	*
1D	-mi	1A	.	2d\	-mi	.
.	.	.	.	2A/	.	.
=106	=106	=106	=106	=106	=106	=106
*	*	*lig	*	*	*	*
2E\	.	1G	-si-	2e\	.	.
2G\	.	.	.	2d\	.	.
2F\	fi-	1A	.	2A/	.	.
2D\	-li-	.	.	2A/	.	.
*	*	*Xlig	*	*	*	*
=107	=107	=107	=107	=107	=107	=107
2.A\	-um	1A,	-mi	1F	.	.
4G\	.	.	.	.	.	.
4F\	.	1A	fi-	1r	.	.
4E\	.	.	.	.	.	.
2.F\	.	.	.	.	.	.
=108	=108	=108	=108	=108	=108	=108
.	.	1A	-li	1.A	fi-	.
4E\	.	.	.	.	.	.
4D\	.	.	.	.	.	.
4C/	.	.	.	.	.	.
*	*	*lig	*	*	*	*
2D/	.	1F	.	.	.	.
2C/	tu	.	.	2A/	-li-	.
=109	=109	=109	=109	=109	=109	=109
!LO:SIC:v:t=custos AA	!	!	!	!	!	!
1BB	.	1G,	.	1d	-um	.
*	*	*Xlig	*	*	*	*
*	*	*lig	*	*	*	*
!LO:LB:g=original	!	!	!	!	!	!
2AA/	.	1A	.	2c/	tu	.
2AA/	.	.	.	2.A/	.	.
=110	=110	=110	=110	=110	=110	=110
2D\	.	1F	.	.	.	.
.	.	.	.	4G/	.	.
2D\	.	.	.	4A/	.	.
.	.	.	.	4B/	.	.
*	*	*Xlig	*	*	*	*
*	*	*lig	*	*	*	*
1C	.	1G	.	1c	.	.
=111	=111	=111	=111	=111	=111	=111
1D	.	1F,	.	1A	.	.
*	*	*Xlig	*	*	*	*
*	*	*lig	*	*	*	*
!	!	!	!	!LO:SIC:v:t=custos B	!	!
1AA	.	1E	tu	1A	.	.
!	!	!	!	!LO:LB:g=original	!	!
=112	=112	=112	=112	=112	=112	=112
!	!	!LO:SIC:v:t=custos C	!	!	!	!
2BB-X/	.	1D	.	2B-X/	qu-	.
2GG/	.	.	.	2B-/	-ia	.
!	!	!LO:LB:g=original	!	!	!	!
*	*	*Xlig	*	*	*	*
*	*	*lig	*	*	*	*
1AA	qu-	1C	qu-	1A	gig-	.
=113	=113	=113	=113	=113	=113	=113
0D	-ia	1D	.	1A	-nes	.
*	*	*Xlig	*	*	*	*
.	.	1D,	-ia	2r	.	.
.	.	.	.	2d\	et	.
=114	=114	=114	=114	=114	=114	=114
0r	.	1D	gig-	1f	vo-	.
.	.	1F,	-nes	2f\	-ca-	.
.	.	.	.	2c\	-bi-	.
=115	=115	=115	=115	=115	=115	=115
0r	.	1D	et	2.d\	-tur	.
.	.	.	.	4c\	.	.
.	.	1D	vo-	4d\	.	.
.	.	.	.	4e\	.	.
.	.	.	.	1f	.	.
=116	=116	=116	=116	=116	=116	=116
0r	.	1C	-ca-	.	.	.
.	.	.	.	2e\	.	.
.	.	1F	-bi-	2f\	.	.
.	.	.	.	2a\	Meſ-	.
=117	=117	=117	=117	=117	=117	=117
*	*	*lig	*	*	*	*
0r	.	1G	-tur	1g	-ſi-	.
!	!	!	!	!LO:SIC:v:t=custos f	!	!
.	.	1A,	.	1e	-as	.
*	*	*Xlig	*	*	*	*
!	!	!	!	!LO:LB:g=original	!	!
=118	=118	=118	=118	=118	=118	=118
*	*	*lig	*	*	*	*
1D	gig-	1d	Meſ-	1f	et	.
1F	-nes	1c	.	1c	vo-	.
*	*	*Xlig	*	*	*	*
=119	=119	=119	=119	=119	=119	=119
*	*	*lig	*	*	*	*
1F	et	1A	.	1d	-ca-	.
!	!	!LO:SIC:v:t=custos G	!	!	!	!
1D	vo-	1F	.	2G/	-bi-	.
.	.	.	.	2c\	-tur	.
!	!	!LO:LB:g=original	!	!	!	!
*	*	*Xlig	*	*	*	*
=120	=120	=120	=120	=120	=120	=120
*	*	*lig	*	*	*	*
1C	-ca-	1G	-si-	2F/	Meſ-	.
.	.	.	.	1A	-ſi-	.
!LO:SIC:v:t=custos AA	!	!	!	!	!	!
1D	-bi-	1F	.	.	.	.
.	.	.	.	2B/	-as.	.
!LO:LB:g=original	!	!	!	!	!	!
*	*	*Xlig	*	*	*	*
=121	=121	=121	=121	=121	=121	=121
2AA/	-tur	1E	-as.	1c#X	.	.
2FF/	Meſ-	.	.	.	.	.
1AA	-si-	0.D	.	0.d	.	.
=122	=122	=122	=122	=122	=122	=122
0D;	-as.	.	.	.	.	.
=123||	=123||	=123||	=123||	=123||	=123||	=123||
0r	.	1d	Quo-	1.f#X	Quo-	.
.	.	1d	-mo-	.	.	.
.	.	.	.	2f#\	-mo-	.
=124	=124	=124	=124	=124	=124	=124
1.G	Quo-	1G,	-do	1.g	-do	.
.	.	1B	le-	.	.	.
!	!	!	!	!LO:SIC:v:t=custos F	!	!
2G\	-mo-	.	.	2d\	le-	.
=125	=125	=125	=125	=125	=125	=125
4D\	-do	1d	-ga-	1f	-ga-	.
4E\	.	.	.	.	.	.
4F\	.	.	.	.	.	.
4G\	.	.	.	.	.	.
1A	le-	1c,	-te	2e\	-te	.
.	.	.	.	2c\	ar-	.
=126	=126	=126	=126	=126	=126	=126
2G\	-ga-	1B	ar-	1d	-ca-	.
2G\	-te	.	.	.	.	.
2D/	ar-	1A	-cha-	2f\	-no-	.
2F\	-ca-	.	.	2d\	.	.
=127	=127	=127	=127	=127	=127	=127
*	*	*lig	*	*	*	*
1E	-no-	1G	-no-	1e	-rum	.
!LO:SIC:v:t=custos D	!	!	!	!	!	!
2AA/	-rum	1A	.	2e\	.	.
!LO:LB:g=original	!	!	!	!	!	!
1D	pa-	.	.	2f\	.	.
*	*	*Xlig	*	*	*	*
=128	=128	=128	=128	=128	=128	=128
!	!	!LO:SIC:v:t=custos A	!	!	!	!
.	.	1A,	-rum	2d\	.	.
2F\	-ri-	.	.	2c\	.	.
!	!	!LO:LB:g=original	!	!	!	!
1D	-am	1A	pa-	2f\	.	.
.	.	.	.	2d\	pa-	.
=129	=129	=129	=129	=129	=129	=129
1C	nunc	1c	-ri-	2g\	-ri-	.
.	.	.	.	2g\	-am	.
1D	re-	1A,	-am	1f	nunc	.
=130	=130	=130	=130	=130	=130	=130
2E\	-gem	1G,	nunc	1e	re-	.
2C/	.	.	.	.	.	.
!	!	!	!	!LO:SIC:v:t=custos d	!	!
2.F\	An-	1A	Re-	1c	-gem	.
4G\	.	.	.	.	.	.
!	!	!	!	!LO:LB:g=original	!	!
=131	=131	=131	=131	=131	=131	=131
4A\	.	1F,	-gem	2d\	an-	.
4G\	.	.	.	.	.	.
4F\	.	.	.	2d\	-ge-	.
4E\	.	.	.	.	.	.
1D	.	1A	An-	2d\	-lo-	.
.	.	.	.	1A	-rum	.
=132	=132	=132	=132	=132	=132	=132
2C/	-ge-	1c	-ge-	.	.	.
4BB/	-lo-	.	.	2.e\	.	.
4AA/	-rum.	.	.	.	.	.
2E\	.	1B	-lo-	.	.	.
.	.	.	.	4d\	an-	.
2EE/	.	.	.	2B/	-ge-	.
=133	=133	=133	=133	=133	=133	=133
1AA	.	00A	-rum.	1c	-lo-	.
1D	.	.	.	1d	.	.
=134	=134	=134	=134	=134	=134	=134
!LO:SIC:v:t=custos D	!	!	!	!	!	!
0AA	.	.	.	0c#X	-rum.	.
!LO:LB:g=original	!	!	!	!	!	!
=135	=135	=135	=135	=135	=135	=135
0r	.	1d	Quo-	1.f#X	Quo-	.
.	.	1d	-ni-	.	.	.
.	.	.	.	2f#\	-ni-	.
=136	=136	=136	=136	=136	=136	=136
1.G	Quo-	1G,	-am	1.g	-am	.
.	.	1B,	non	.	.	.
!	!	!	!	!LO:SIC:v:t=custos F	!	!
2G\	-ni-	.	.	2d\	non	.
!	!	!	!	!LO:LB:g=original	!	!
=137	=137	=137	=137	=137	=137	=137
!	!	!LO:SIC:v:t=custos c	!	!	!	!
4D\	-am	1d	no-	1f	no-	.
4E\	.	.	.	.	.	.
4F\	.	.	.	.	.	.
4G\	.	.	.	.	.	.
!	!	!LO:LB:g=original	!	!	!	!
1A	non	1c,	-vi	2e\	-vi	.
.	.	.	.	2c\	vi-	.
=138	=138	=138	=138	=138	=138	=138
2G\	no-	1B	vi-	1d	-ri	.
2G\	-vi	.	.	.	.	.
2D/	vi-	1A,	-ri	2f\	tho-	.
2F\	-ri	.	.	2d\	-rum	.
=139	=139	=139	=139	=139	=139	=139
*	*	*lig	*	*	*	*
1E	tho-	1G	tho-	1e	.	.
!LO:SIC:v:t=custos D	!	!	!	!	!	!
2AA/	-rum	1A	.	2e\	.	.
!LO:LB:g=original	!	!	!	!	!	!
1D	Vir-	.	.	2f\	.	.
*	*	*Xlig	*	*	*	*
=140	=140	=140	=140	=140	=140	=140
.	.	1A,	-rum	2d\	.	.
2F\	-gi-	.	.	2c\	.	.
1D	-ni	1A	Vir-	2f\	.	.
.	.	.	.	2d\	Vir-	.
=141	=141	=141	=141	=141	=141	=141
1C	hoc	1c	-gi-	2g\	-gi-	.
.	.	.	.	2g\	-ni	.
1D	ex-	1A,	-ni	1f	hoc	.
=142	=142	=142	=142	=142	=142	=142
2E\	-tat	1G,	hoc	1e	ex-	.
2C/	.	.	.	.	.	.
!	!	!	!	!LO:SIC:v:t=custos d	!	!
2.F\	in-	1A	ex-	1c	-tat	.
4G\	.	.	.	.	.	.
!	!	!	!	!LO:LB:g=original	!	!
=143	=143	=143	=143	=143	=143	=143
4A\	.	1F,	-tat	2d\	in-	.
4G\	.	.	.	.	.	.
4F\	.	.	.	2d\	-de-	.
4E\	.	.	.	.	.	.
1D	.	1A	in-	2d\	-co-	.
.	.	.	.	1A	-rum	.
=144	=144	=144	=144	=144	=144	=144
2C/	de-	1c	-de-	.	.	.
4BB/	-co-	.	.	2.e\	in-	.
4AA/	-rum.	.	.	.	.	.
2E\	.	1B	-co-	.	.	.
.	.	.	.	4d\	.	.
2EE/	.	.	.	2B/	-de-	.
=145	=145	=145	=145	=145	=145	=145
!	!	!LO:SIC:v:t=custos d	!	!	!	!
1AA	.	00A	-rum.	1c	-co-	.
1D	.	.	.	1d	-rum.	.
=146	=146	=146	=146	=146	=146	=146
!LO:SIC:v:t=custos D	!	!	!	!	!	!
0AA	.	.	.	0c#X	.	.
!LO:LB:g=original	!	!	!	!	!	!
!	!	!LO:LB:g=original	!	!	!	!
=147||	=147||	=147||	=147||	=147||	=147||	=147||
1.D	Al-	1d	Al-	1.f	Al-	.
.	.	1f,	-mus	.	.	.
!	!	!	!	!LO:SIC:v:t=custos a	!	!
2D\	-mus	.	.	2d\	-mus	.
!	!	!	!	!LO:LB:g=original	!	!
=148	=148	=148	=148	=148	=148	=148
1A	San-	1e	San-	1a	San-	.
1B	-cti	1d,	-cti	2f\	-cti	.
.	.	.	.	2d\	Spi-	.
=149	=149	=149	=149	=149	=149	=149
2.A\	Spi-	1c	Spi-	1e	-ri-	.
4A\	-ri-	.	.	.	.	.
1D	-tus	1d	-ri-	1f	-tus	.
=150	=150	=150	=150	=150	=150	=150
1F	ra-	1A,	-tus	2r	.	.
.	.	.	.	4F/	ra-	.
.	.	.	.	4G/	.	.
2F\	-di-	1c	ra-	4A/	.	.
.	.	.	.	4B/	.	.
2E\	-us	.	.	1c	.	.
=151	=151	=151	=151	=151	=151	=151
2D\	ob-	1d	-di-	.	.	.
2D\	-um-	.	.	2B/	di-	.
1C	-bra-	1e,	-us	1.c	-us	.
=152	=152	=152	=152	=152	=152	=152
1F	-bit	1A	ob-	.	.	.
.	.	.	.	2f\	ob-	.
!	!	!LO:SIC:v:t=custos G	!	!	!	!
1r	.	1A	-um-	2e\	-um-	.
.	.	.	.	2f\	-bra-	.
!	!	!LO:LB:g=original	!	!	!	!
=153	=153	=153	=153	=153	=153	=153
*	*	*lig	*	*	*	*
0r	.	1G	-bra-	2g\	-bit	.
.	.	.	.	2d\	.	.
.	.	1F	.	2f\	o-	.
.	.	.	.	2d\	-bum-	.
!	!	!	!	!LO:SIC:v:t=custos e	!	!
*	*	*Xlig	*	*	*	*
!	!	!	!	!LO:LB:g=original	!	!
=154	=154	=154	=154	=154	=154	=154
1r	.	1E,	-bit	2e\	-bra-	.
.	.	.	.	2g\	.	.
1.D	Vir-	1F	Vir-	1f	-bit	.
=155	=155	=155	=155	=155	=155	=155
.	.	1D	-go	2r	.	.
!LO:SIC:v:t=custos D	!	!	!	!	!	!
2D/	-go	.	.	1d	Vir-	.
1D	tu-	1F	tu-	.	.	.
.	.	.	.	2d\	-go	.
=156	=156	=156	=156	=156	=156	=156
1GG	-os	1G	-os	1d	tu-	.
*	*	*lig	*	*	*	*
1C	ſi-	1E	Si-	2e\	-os	.
.	.	.	.	2.e\	ſi-	.
=157	=157	=157	=157	=157	=157	=157
1D	.	1F	.	.	.	.
.	.	.	.	4d\	.	.
.	.	.	.	1d	-nus.	.
*	*	*Xlig	*	*	*	*
*	*	*lig	*	*	*	*
1AA	-nus.	1E	-nus.	.	.	.
.	.	.	.	2c\	.	.
=158	=158	=158	=158	=158	=158	=158
0D	.	0D	.	0d	.	.
*	*	*Xlig	*	*	*	*
=159	=159	=159	=159	=159	=159	=159
1.D	Ex	1d,	ex	1.f	Ex	.
.	.	1f,	te	.	.	.
!	!	!	!	!LO:SIC:v:t=custos a	!	!
2D\	te	.	.	2d\	te	.
!	!	!	!	!LO:LB:g=original	!	!
=160	=160	=160	=160	=160	=160	=160
1A	e-	1e	e-	1a	e-	.
1B	-nim	1d	-nim	2f\	-nim	.
.	.	.	.	2d\	e-	.
=161	=161	=161	=161	=161	=161	=161
2.A\	e-	1c	e-	1e	-xi-	.
4A\	-xi-	.	.	.	.	.
1D	-et	1d	-xi-	1f	-et	.
=162	=162	=162	=162	=162	=162	=162
1F	di-	1A,	-et	2r	.	.
.	.	.	.	4F/	di-	.
.	.	.	.	4G/	.	.
2F\	-vi-	1c	di-	4A/	.	.
.	.	.	.	4B/	.	.
2E\	-nus	.	.	1c	.	.
=163	=163	=163	=163	=163	=163	=163
2D\	ab	1d	-vi-	.	.	.
2D\	ae-	.	.	2B/	-vi-	.
1C	-ter-	1e,	-nus	1.c	-nus	.
=164	=164	=164	=164	=164	=164	=164
1F	-no	1A	ab	.	.	.
.	.	.	.	2f\	ab	.
1r	.	1A	ae-	2e\	ae-	.
.	.	.	.	2f\	-ter-	.
=165	=165	=165	=165	=165	=165	=165
*	*	*lig	*	*	*	*
0r	.	1G	-ter-	2g\	-no	.
.	.	.	.	2d\	.	.
!	!	!LO:SIC:v:t=custos E	!	!	!	!
.	.	1F	.	2f\	.	.
!	!	!	!	!LO:SIC:v:t=custos e	!	!
.	.	.	.	2d\	ab	.
!	!	!LO:LB:g=original	!	!	!	!
*	*	*Xlig	*	*	*	*
!	!	!	!	!LO:LB:g=original	!	!
=166	=166	=166	=166	=166	=166	=166
1r	.	1E,	-no	2e\	ae-	.
.	.	.	.	2g\	-ter-	.
1.D	ge-	1F	ge-	1f	-no	.
=167	=167	=167	=167	=167	=167	=167
.	.	1D	-ni-	2r	.	.
!LO:SIC:v:t=custos D	!	!	!	!	!	!
2D/	-ni-	.	.	1d	ge-	.
*	*	*lig	*	*	*	*
1D	-tus	1F	-tus	.	.	.
.	.	.	.	2d\	-ni-	.
=168	=168	=168	=168	=168	=168	=168
1GG	.	1G,	.	1d	-tus	.
*	*	*Xlig	*	*	*	*
1C	.	1E	fi-	2e\	fi-	.
.	.	.	.	2.e\	-lu-	.
=169	=169	=169	=169	=169	=169	=169
1D	fi-	1F	-li-	.	.	.
.	.	.	.	4d\	.	.
.	.	.	.	1d	-is.	.
*	*	*lig	*	*	*	*
1AA	-li-	1E	-us.	.	.	.
.	.	.	.	2c\	.	.
=170	=170	=170	=170	=170	=170	=170
0D	-us.	0D	.	0d	.	.
*	*	*Xlig	*	*	*	*
=171||	=171||	=171||	=171||	=171||	=171||	=171||
1.D	Ec-	1A	Ec-	1.f	Ec-	.
!	!	!LO:SIC:v:t=custos G	!	!	!	!
.	.	1F,	-ce	.	.	.
2D\	-ce	.	.	2f\	-ce	.
!	!	!LO:LB:g=original	!	!	!	!
=172	=172	=172	=172	=172	=172	=172
!	!	!	!	!LO:SIC:v:t=custos f	!	!
1GG	De-	1G	De-	1d	De-	.
!	!	!	!	!LO:LB:g=original	!	!
2D\	-i	1F,	-i	2f\	-i	.
2F\	hu-	.	.	2f\	hu-	.
=173	=173	=173	=173	=173	=173	=173
2C/	-mi-	1G	hu-	1e	-mi-	.
2E\	-lis	.	.	.	.	.
2BB/	an-	1F	-mi-	1d	-lis	.
!LO:SIC:v:t=custos AA	!	!	!	!	!	!
2D/	-cil-	.	.	.	.	.
!LO:LB:g=original	!	!	!	!	!	!
=174	=174	=174	=174	=174	=174	=174
2AA/	-la	1E,	-lis	4c\	an-	.
.	.	.	.	4d\	.	.
2C/	an-	.	.	4e\	.	.
.	.	.	.	4f\	.	.
2GG/	-cil-	1D	an-	2g\	.	.
2D\	-la	.	.	2f\	.	.
=175	=175	=175	=175	=175	=175	=175
*	*	*lig	*	*	*	*
0r	.	1C	-cil-	1e	cil-	.
.	.	1D	.	1d	-la	.
*	*	*Xlig	*	*	*	*
=176	=176	=176	=176	=176	=176	=176
1GG	fi-	1D,	-la	2r	.	.
.	.	.	.	2g\	fi-	.
1D	-at	1F	fi-	2f\	-at	.
.	.	.	.	2.a\	ver-	.
=177	=177	=177	=177	=177	=177	=177
1E	ver-	1G,	-at	.	.	.
.	.	.	.	4g\	.	.
.	.	.	.	1g	.	.
*	*	*lig	*	*	*	*
1D	-bum	1A	ver-	.	.	.
.	.	.	.	2f\	.	.
=178	=178	=178	=178	=178	=178	=178
1r	.	1c	.	1g	bum	.
*	*	*Xlig	*	*	*	*
2r	.	1A,	-bum	2r	.	.
!	!	!	!	!LO:SIC:v:t=custos g	!	!
2F\	fi-	.	.	2f\	fi-	.
!	!	!	!	!LO:LB:g=original	!	!
=179	=179	=179	=179	=179	=179	=179
!	!	!LO:SIC:v:t=custos A	!	!	!	!
2F\	-at	1c,	quod	2g\	-at	.
2E\	ver-	.	.	2e\	.	.
!	!	!LO:LB:g=original	!	!	!	!
*	*	*lig	*	*	*	*
1F	.	1A	di-	1c	ver-	.
=180	=180	=180	=180	=180	=180	=180
1C	-bum	1G	.	1g	.	.
*	*	*Xlig	*	*	*	*
2r	.	1F	.	1c	-bum	.
!LO:SIC:v:t=custos D	!	!	!	!	!	!
2F\	quod	.	.	.	.	.
!LO:LB:g=original	!	!	!	!	!	!
=181	=181	=181	=181	=181	=181	=181
2D/	di-	1F,	-cis	2r	.	.
4C/	-cis	.	.	2d\	quod	.
4BB/	.	.	.	.	.	.
*	*	*lig	*	*	*	*
4AA/	.	1A	in	1e	.	.
4BB/	.	.	.	.	.	.
4C/	.	.	.	.	.	.
4D/	.	.	.	.	.	.
=182	=182	=182	=182	=182	=182	=182
2E\	.	1G	.	2B/	di-	.
2C/	.	.	.	2c/	.	.
*	*	*Xlig	*	*	*	*
*	*	*lig	*	*	*	*
1D	.	1F	.	1A	-cis	.
=183	=183	=183	=183	=183	=183	=183
1AA	in	1E	.	2r	.	.
.	.	.	.	2c/	ni	.
*	*	*Xlig	*	*	*	*
1BB-X	il-	1D	.	2B-X/	.	.
.	.	.	.	2G/	.	.
=184	=184	=184	=184	=184	=184	=184
*	*	*lig	*	*	*	*
1AA	-la.	1C	il-	1A	.	.
1GG	.	1D	.	1d	il-	.
*	*	*Xlig	*	*	*	*
=185	=185	=185	=185	=185	=185	=185
!	!	!	!	!LO:SIC:v:t=custos a	!	!
0D	.	0D	-la	0d	-la	.
!	!	!	!	!LO:LB:g=original	!	!
=186	=186	=186	=186	=186	=186	=186
1.D	In	1A,	In	1.f	In	.
!	!	!LO:SIC:v:t=custos G	!	!	!	!
.	.	1F,	me	.	.	.
2D\	me	.	.	2f\	me	.
!	!	!LO:LB:g=original	!	!	!	!
=187	=187	=187	=187	=187	=187	=187
!	!	!	!	!LO:SIC:v:t=custos f	!	!
1GG	ſiſ-	1G	ſiſ-	1d	ſi-	.
!	!	!	!	!LO:LB:g=original	!	!
2D\	-tunt	1F,	-tunt	2f\	-ſe-	.
2F\	Va-	.	.	2f\	-rat	.
=188	=188	=188	=188	=188	=188	=188
!	!	!LO:SIC:v:t=custos F	!	!	!	!
2C/	tes	1G	Va-	1e	va-	.
2E\	et	.	.	.	.	.
!	!	!LO:LB:g=original	!	!	!	!
2BB/	Sÿ-	1F,	-tes	1d	-tes	.
!LO:SIC:v:t=custos AA	!	!	!	!	!	!
2D/	-bil-	.	.	.	.	.
!LO:LB:g=original	!	!	!	!	!	!
=189	=189	=189	=189	=189	=189	=189
2AA/	-la	1E,	et	4c\	et	.
.	.	.	.	4d\	.	.
2C/	Sÿ-	.	.	4e\	Sÿ-	.
.	.	.	.	4f\	.	.
2GG/	-bil-	1D	Sÿ-	2g\	.	.
2D\	-la	.	.	2f\	.	.
=190	=190	=190	=190	=190	=190	=190
*	*	*lig	*	*	*	*
0r	.	1C	-bil-	1e	-bil-	.
.	.	1D	.	1d	-la	.
*	*	*Xlig	*	*	*	*
=191	=191	=191	=191	=191	=191	=191
1GG	per	1D,	-la	2r	.	.
.	.	.	.	2g\	per	.
1D	me	1F	per	2f\	.	.
.	.	.	.	2.a\	me	.
=192	=192	=192	=192	=192	=192	=192
1E	ru-	1G,	me	.	.	.
.	.	.	.	4g\	.	.
.	.	.	.	1g	.	.
*	*	*lig	*	*	*	*
1D	-at	1A	ru-	.	.	.
.	.	.	.	2f\	ru-	.
=193	=193	=193	=193	=193	=193	=193
1r	.	1c	.	1g	-at	.
*	*	*Xlig	*	*	*	*
2r	.	1A,	-at	2r	.	.
!	!	!	!	!LO:SIC:v:t=custos g	!	!
2F\	per	.	.	2f\	per	.
!	!	!	!	!LO:LB:g=original	!	!
=194	=194	=194	=194	=194	=194	=194
2F\	me	1c	E-	2g\	me	.
2E\	.	.	.	2e\	.	.
*	*	*lig	*	*	*	*
1F	ru-	1A	-va	1c	ru-	.
=195	=195	=195	=195	=195	=195	=195
1C	-at	1G	.	1g	.	.
*	*	*Xlig	*	*	*	*
2r	.	1F,	.	1c	-at	.
!LO:SIC:v:t=custos D	!	!	!	!	!	!
2F\	E-	.	.	.	.	.
!LO:LB:g=original	!	!	!	!	!	!
=196	=196	=196	=196	=196	=196	=196
!	!	!LO:SIC:v:t=custos G	!	!	!	!
2D/	-vae	1F	ne-	2r	.	.
4C/	ne-	.	.	2d\	E-	.
4BB/	.	.	.	.	.	.
!	!	!LO:LB:g=original	!	!	!	!
4AA/	.	1A,	-cis	1e	-vae	.
4BB/	-cis	.	.	.	.	.
4C/	.	.	.	.	.	.
4D/	.	.	.	.	.	.
=197	=197	=197	=197	=197	=197	=197
*	*	*lig	*	*	*	*
2E\	.	1G	ſtil-	2B/	ne-	.
2C/	.	.	.	2c/	.	.
1D	.	1F	.	1A	-cis	.
*	*	*Xlig	*	*	*	*
=198	=198	=198	=198	=198	=198	=198
*	*	*lig	*	*	*	*
1AA	Stil-	1E	.	2r	.	.
.	.	.	.	2c/	ne-	.
1BB-X	.	1D	.	2B-X/	-cis	.
.	.	.	.	2G/	.	.
*	*	*Xlig	*	*	*	*
=199	=199	=199	=199	=199	=199	=199
*	*	*lig	*	*	*	*
1AA	-la.	1C	.	1A	stil-	.
1GG	.	1D	.	1d	.	.
*	*	*Xlig	*	*	*	*
=200	=200	=200	=200	=200	=200	=200
!	!	!	!	!LO:SIC:v:t=custos a	!	!
0D	.	0D	-la.	0d	-la.	.
=201||	=201||	=201||	=201||	=201||	=201||	=201||
1A	Lae-	1A	Lae-	1r	.	.
1A	-ten-	1c	-ten-	1a	Le-	.
=202	=202	=202	=202	=202	=202	=202
!LO:SIC:v:t=custos D	!	!	!	!	!	!
1D	-tur	1d,	-tur	1a	-ten-	.
1D	Chriſ-	1d	Chriſ-	1f	-tur	.
=203	=203	=203	=203	=203	=203	=203
1C	-ti-	1e	-ti-	1g	Chriſ-	.
2D\	-co-	1d	-co-	1f	-ti-	.
2.D\	-lae	.	.	.	.	.
=204	=204	=204	=204	=204	=204	=204
*	*	*lig	*	*	*	*
.	.	1f	-lae	1a	-co-	.
4E\	.	.	.	.	.	.
4F\	.	.	.	.	.	.
4G\	.	.	.	.	.	.
!	!	!LO:SIC:v:t=custos d	!	!	!	!
1A	.	1e,	.	1.a	-lae	.
*	*	*Xlig	*	*	*	*
!	!	!LO:LB:g=original	!	!	!	!
=205	=205	=205	=205	=205	=205	=205
!LO:TX:b:t=P:problem:# below	!	!	!	!	!	!
2F#X\	so-	1d	ſo-	.	.	.
2G\	.	.	.	2g\	ſo-	.
*	*	*lig	*	*	*	*
1E	-lu-	1c	-lu-	1g	-lu-	.
=206	=206	=206	=206	=206	=206	=206
2D\	-ti	1d	.	2f\	-ti	.
1E	pha-	.	.	2d\	.	.
*	*	*Xlig	*	*	*	*
.	.	1d,	-ti	2f\	Pha-	.
2D\	-ra-	.	.	2a\	-ra-	.
=207	=207	=207	=207	=207	=207	=207
!	!	!	!	!LO:SIC:v:t=custos f	!	!
1A	-o-	1e	pha-	1a	-o-	.
!	!	!	!	!LO:LB:g=original	!	!
2D\	-nis	1d	-ra-	2f\	.	.
2G\	vin-	.	.	1g	.	.
=208	=208	=208	=208	=208	=208	=208
*	*	*lig	*	*	*	*
1C	-cu-	1c	-o-	.	.	.
.	.	.	.	2e\	.	.
2D\	-lis	1B	.	2f\	.	.
2E\	.	.	.	2e\	.	.
!LO:SIC:v:t=custos F	!	!	!	!	!	!
*	*	*Xlig	*	*	*	*
=209	=209	=209	=209	=209	=209	=209
2.F\	ver-	1A	.	1c	.	.
4E\	.	.	.	.	.	.
1D	-ſu-	1A,	-nis	1d	.	.
=210	=210	=210	=210	=210	=210	=210
1C	-ti	1c	Vin-	2G/	-nis	.
.	.	.	.	1c	vin-	.
*	*	*lig	*	*	*	*
1D	.	1A	-cu-	.	.	.
.	.	.	.	1d	-cu-	.
=211	=211	=211	=211	=211	=211	=211
0r	.	1B	.	.	.	.
.	.	.	.	1e	-lis	.
*	*	*Xlig	*	*	*	*
*	*	*lig	*	*	*	*
.	.	1A	.	.	.	.
.	.	.	.	1f	.	.
=212	=212	=212	=212	=212	=212	=212
!	!	!LO:SIC:v:t=custos F	!	!	!	!
0r	.	1G	.	.	.	.
.	.	.	.	2e\	.	.
!	!	!LO:LB:g=original	!	!	!	!
*	*	*Xlig	*	*	*	*
.	.	1F,	-lis	1.f	ver-	.
=213	=213	=213	=213	=213	=213	=213
*	*	*lig	*	*	*	*
1.D	Pha-	1D	ſo-	.	.	.
.	.	.	.	2f\	-ſu-	.
.	.	1F	.	1.d	-ti	.
2D\	-ra-	.	.	.	.	.
*	*	*Xlig	*	*	*	*
=214	=214	=214	=214	=214	=214	=214
*	*	*lig	*	*	*	*
1D	-o-	1A	.	.	.	.
!	!	!	!	!LO:SIC:v:t=custos B	!	!
.	.	.	.	2A/	.	.
!	!	!	!	!LO:LB:g=original	!	!
1GG	-nis	1G	.	1B-X	.	.
*	*	*Xlig	*	*	*	*
=215	=215	=215	=215	=215	=215	=215
*	*	*lig	*	*	*	*
1D	vin-	1F	.	2.A/	ver-	.
.	.	.	.	4B/	.	.
1AA	-cu-	1E	.	4c\	-ſu-	.
.	.	.	.	4d\	.	.
.	.	.	.	4e\	-ti	.
.	.	.	.	4c\	.	.
*	*	*Xlig	*	*	*	*
=216	=216	=216	=216	=216	=216	=216
1BB-X	-lis	1D	.	1d	.	.
*	*	*lig	*	*	*	*
1AA	ver-	1C	-lu-	2r	.	.
.	.	.	.	2A/	ver-	.
=217	=217	=217	=217	=217	=217	=217
1GG	.	1D	.	1d	-ſu-	.
*	*	*Xlig	*	*	*	*
2FF/	.	[1Dl	-ti.	[1dl	-ti.	.
2FF/	.	.	.	.	.	.
=218	=218	=218	=218	=218	=218	=218
1GG	.	0D_	.	0d_	.	.
2D\	.	.	.	.	.	.
2D\	-ſu-	.	.	.	.	.
=219	=219	=219	=219	=219	=219	=219
0AA	-ti.	0D_	.	0d_	.	.
=220	=220	=220	=220	=220	=220	=220
!LO:TX:t=P:problem:fermata powyżej i poniżej	!	!	!	!	!	!
0D;	.	0D]	.	0d]	.	.
=221	=221	=221	=221	=221	=221	=221
1A	Li-	1A	Li-	1r	.	.
1A	-be-	1c	-be-	1a	Li-	.
=222	=222	=222	=222	=222	=222	=222
!LO:SIC:v:t=custos D	!	!LO:SIC:v:t=custos d	!	!	!	!
1D	-ri	1d,	-ri	1a	-be-	.
!LO:LB:g=original	!	!LO:LB:g=original	!	!	!	!
1D	de-	1d	de-	1f	-ri	.
=223	=223	=223	=223	=223	=223	=223
1C	-ſe-	1e	-ſe-	1g	de-	.
2D\	-ru-	1d	-ruiant	1f	-ſe-	.
2.D\	-iant	.	.	.	.	.
=224	=224	=224	=224	=224	=224	=224
*	*	*lig	*	*	*	*
.	.	1f	nunc	1a	-ru-	.
4E\	.	.	.	.	.	.
4F\	.	.	.	.	.	.
4G\	.	.	.	.	.	.
1A	.	1e,	.	1.a	-iant	.
*	*	*Xlig	*	*	*	*
=225	=225	=225	=225	=225	=225	=225
!LO:TX:b:t=P:problem:# below	!	!	!	!	!	!
2F#X\	nunc	1d	vir-	.	.	.
2G\	Vir-	.	.	2g\	nunc	.
*	*	*lig	*	*	*	*
1E	-tu-	1c	-tu-	1g	Vir-	.
=226	=226	=226	=226	=226	=226	=226
2D\	-ti	1d	.	2f\	-tu-	.
1E	mun-	.	.	2d\	-ti	.
*	*	*Xlig	*	*	*	*
.	.	1d,	-ti	2f\	.	.
2D\	-di	.	.	2a\	mun-	.
=227	=227	=227	=227	=227	=227	=227
!	!	!	!	!LO:SIC:v:t=custos f	!	!
1A	pom-	1e	mun-	1a	-di	.
!	!	!	!	!LO:LB:g=original	!	!
2D\	.	1d,	-di	2f\	.	.
2G\	.	.	.	1g	.	.
=228	=228	=228	=228	=228	=228	=228
*	*	*lig	*	*	*	*
1C	-pas	1c	pom-	.	.	.
.	.	.	.	2e\	.	.
!	!	!LO:SIC:v:t=custos A	!	!	!	!
2D\	.	1B	.	2f\	.	.
!LO:SIC:v:t=custos F	!	!	!	!	!	!
2E\	.	.	.	2e\	.	.
!LO:LB:g=original	!	!	!	!	!	!
!	!	!LO:LB:g=original	!	!	!	!
*	*	*Xlig	*	*	*	*
=229	=229	=229	=229	=229	=229	=229
2.F\	cal-	1A	.	1c	.	.
4E\	.	.	.	.	.	.
1D	-can-	1A,	-pas	1d	.	.
=230	=230	=230	=230	=230	=230	=230
1C	.	1c	cal-	2G/	pom-	.
.	.	.	.	1c	-pas	.
*	*	*lig	*	*	*	*
1D	-tes	1A	-can-	.	.	.
.	.	.	.	1d	cal-	.
=231	=231	=231	=231	=231	=231	=231
0r	.	1B-X	.	.	.	.
.	.	.	.	1e	-can-	.
*	*	*Xlig	*	*	*	*
.	.	1A	.	.	.	.
.	.	.	.	1f	-tes	.
=232	=232	=232	=232	=232	=232	=232
0r	.	1G	.	.	.	.
.	.	.	.	2e\	.	.
.	.	1F,	-tes	1.f	pol-	.
=233	=233	=233	=233	=233	=233	=233
*	*	*lig	*	*	*	*
1.D	mu(n)	1D	pol-	.	.	.
.	.	.	.	2f\	.	.
.	.	1F	.	1.d	-lu-	.
2D\	di	.	.	.	.	.
*	*	*Xlig	*	*	*	*
=234	=234	=234	=234	=234	=234	=234
*	*	*lig	*	*	*	*
1D	pom-	1A	.	.	.	.
!	!	!	!	!LO:SIC:v:t=custos B	!	!
.	.	.	.	2A/	-ti	.
!	!	!	!	!LO:LB:g=original	!	!
1GG	.	1G	.	1B-X	.	.
*	*	*Xlig	*	*	*	*
=235	=235	=235	=235	=235	=235	=235
*	*	*lig	*	*	*	*
1D	-pas	1F	.	2.A/	pol-	.
.	.	.	.	4B/	-lu-	.
1AA	.	1E	.	4c\	.	.
.	.	.	.	4d\	.	.
.	.	.	.	4e\	-ti	.
.	.	.	.	4c\	.	.
*	*	*Xlig	*	*	*	*
=236	=236	=236	=236	=236	=236	=236
1BB-X	cal-	1D	.	1d	.	.
*	*	*lig	*	*	*	*
1AA	-can-	1C	-lu-	2r	.	.
.	.	.	.	2A/	pol-	.
=237	=237	=237	=237	=237	=237	=237
1GG	-tes	1D	.	1d	-lu-	.
*	*	*Xlig	*	*	*	*
2FF/	.	[1D;l	-ti.	[1d;l	-ti	.
2FF/	pol-	.	.	.	.	.
=238	=238	=238	=238	=238	=238	=238
1GG	-lu-	0D_	.	0d_	.	.
2D\	.	.	.	.	.	.
2D\	-ti.	.	.	.	.	.
=239	=239	=239	=239	=239	=239	=239
0AA	.	0D_	.	0d_	.	.
=240	=240	=240	=240	=240	=240	=240
!LO:TX:b:t=quie\nqniu dicant omnia qlla.	!	!	!	!	!	!
!LO:TX:t=P:problem:fermata powyżej i poniżej	!	!	!	!LO:TX:b:t=qlla.	!	!
!LO:N:vis=00	!	!	!	!	!	!
0D;	.	0D]	.	0d]	.	.
==	==	==	==	==	==	==
*-	*-	*-	*-	*-	*-	*-
!!!system-decoration: [(s1,s2,s3)]
!!!AIN: 1 bass 1 soprn 1 tenor
!!!ENC: Filip Voros
!!!END: 2022-01-20
!!!ENC: Natalia Wrzos
!!!END: 2022-01-25
!!!RDF**kern: l = terminal long
